src/assets/icons/shapes,simple,outline-star8.svg

<svg width="48" height="48" viewBox="0 0 48 48" fill="none" xmlns="http://www.w3.org/2000/svg">
<rect opacity="0.2" x="5" y="5" width="38" height="38" rx="4" fill="black"/>
<path d="M23.0707 13.046C23.4763 12.0253 23.7419 11.3635 23.9804 10.9443C23.9871 10.9326 23.9936 10.9212 24 10.9103C24.0064 10.9212 24.0129 10.9326 24.0196 10.9443C24.2581 11.3635 24.5237 12.0253 24.9293 13.046L25.5556 14.6219C25.5624 14.6391 25.5693 14.6562 25.5761 14.6734C25.7369 15.0784 25.8927 15.4707 26.0648 15.7758C26.2584 16.1192 26.5439 16.4865 27.029 16.6874C27.514 16.8884 27.9756 16.8305 28.3553 16.7246C28.6928 16.6305 29.0804 16.4633 29.4805 16.2906L29.5314 16.2687L31.0886 15.5972C32.0971 15.1623 32.7528 14.8822 33.2179 14.7544C33.2309 14.7508 33.2436 14.7474 33.2558 14.7442C33.2526 14.7564 33.2492 14.7691 33.2456 14.7821C33.1178 15.2472 32.8377 15.9029 32.4028 16.9114L31.7313 18.4686L31.7094 18.5195C31.5367 18.9196 31.3695 19.3072 31.2754 19.6447C31.1695 20.0244 31.1116 20.486 31.3125 20.971L32.2364 20.5884L31.3126 20.971C31.5135 21.4561 31.8808 21.7416 32.2242 21.9352C32.5293 22.1072 32.9216 22.2631 33.3266 22.4239L33.3781 22.4444L34.954 23.0707C35.9747 23.4763 36.6365 23.7419 37.0557 23.9804C37.0674 23.9871 37.0788 23.9936 37.0897 24C37.0788 24.0064 37.0674 24.0129 37.0557 24.0196C36.6365 24.2581 35.9747 24.5237 34.954 24.9293L33.3782 25.5556L33.3266 25.5761C32.9216 25.7369 32.5293 25.8928 32.2242 26.0648C31.8808 26.2584 31.5135 26.5439 31.3126 27.029L32.2364 27.4116L31.3125 27.029C31.1116 27.514 31.1695 27.9756 31.2754 28.3553C31.3695 28.6928 31.5367 29.0804 31.7094 29.4805L31.7313 29.5314L32.4028 31.0886C32.8377 32.0971 33.1178 32.7528 33.2456 33.2179C33.2492 33.2309 33.2526 33.2436 33.2558 33.2558C33.2436 33.2526 33.2309 33.2492 33.2179 33.2456C32.7528 33.1178 32.0971 32.8377 31.0886 32.4028L29.5314 31.7313L29.4805 31.7094C29.0804 31.5367 28.6928 31.3695 28.3553 31.2754C27.9756 31.1695 27.514 31.1116 27.029 31.3125L27.4116 32.2364L27.029 31.3126C26.5439 31.5135 26.2584 31.8808 26.0648 32.2242C25.8928 32.5293 25.7369 32.9216 25.5761 33.3266L25.5556 33.3781L24.9293 34.954C24.5237 35.9747 24.2581 36.6365 24.0196 37.0557C24.0129 37.0674 24.0064 37.0788 24 37.0897C23.9936 37.0788 23.9871 37.0674 23.9804 37.0557C23.7419 36.6365 23.4763 35.9747 23.0707 34.954L22.4444 33.3782L22.4239 33.3266C22.2631 32.9216 22.1072 32.5293 21.9352 32.2242C21.7416 31.8808 21.4561 31.5135 20.971 31.3126L20.5884 32.2364L20.971 31.3125C20.486 31.1116 20.0244 31.1695 19.6447 31.2754C19.3072 31.3695 18.9196 31.5367 18.5195 31.7094L18.4686 31.7313L16.9114 32.4028C15.9029 32.8377 15.2472 33.1178 14.7821 33.2456C14.7691 33.2492 14.7564 33.2526 14.7442 33.2558C14.7474 33.2436 14.7508 33.2309 14.7544 33.2179C14.8822 32.7528 15.1623 32.0971 15.5972 31.0886L16.2687 29.5314L16.2906 29.4805C16.4633 29.0804 16.6305 28.6928 16.7246 28.3553C16.8305 27.9756 16.8884 27.514 16.6874 27.029C16.4865 26.5439 16.1192 26.2584 15.7758 26.0648C15.4707 25.8927 15.0784 25.7369 14.6734 25.5761C14.6562 25.5693 14.6391 25.5624 14.6218 25.5556L13.046 24.9293C12.0253 24.5237 11.3635 24.2581 10.9443 24.0196C10.9326 24.0129 10.9212 24.0064 10.9103 24C10.9212 23.9936 10.9326 23.9871 10.9443 23.9804C11.3635 23.7419 12.0253 23.4763 13.046 23.0707L14.6219 22.4444C14.6391 22.4376 14.6563 22.4307 14.6734 22.4239C15.0784 22.2631 15.4707 22.1072 15.7758 21.9352C16.1192 21.7416 16.4865 21.4561 16.6874 20.971C16.8884 20.486 16.8305 20.0244 16.7246 19.6447C16.6305 19.3072 16.4633 18.9196 16.2906 18.5195C16.2833 18.5026 16.276 18.4856 16.2687 18.4686L15.5972 16.9114C15.1623 15.9029 14.8822 15.2472 14.7544 14.7821C14.7508 14.7691 14.7474 14.7564 14.7442 14.7442C14.7564 14.7474 14.7691 14.7508 14.7821 14.7544C15.2472 14.8822 15.9029 15.1623 16.9114 15.5972L18.4686 16.2687C18.4856 16.276 18.5026 16.2833 18.5195 16.2906C18.9196 16.4633 19.3072 16.6305 19.6447 16.7246C20.0244 16.8305 20.486 16.8884 20.971 16.6874C21.4561 16.4865 21.7416 16.1192 21.9352 15.7758C22.1072 15.4707 22.2631 15.0784 22.4239 14.6734C22.4307 14.6563 22.4376 14.6391 22.4444 14.6219L23.0707 13.046ZM24.1842 10.6531C24.1842 10.6535 24.1811 10.6565 24.1748 10.6609C24.181 10.6549 24.1842 10.6527 24.1842 10.6531ZM23.8252 10.6609C23.8189 10.6565 23.8158 10.6535 23.8158 10.6531C23.8158 10.6527 23.819 10.6549 23.8252 10.6609ZM33.5679 14.6925C33.5676 14.6928 33.5633 14.6927 33.5558 14.6915C33.5644 14.6916 33.5682 14.6922 33.5679 14.6925ZM33.3085 14.4442C33.3072 14.4367 33.3072 14.4324 33.3075 14.4321C33.3078 14.4318 33.3084 14.4356 33.3085 14.4442ZM37.3469 24.1842C37.3465 24.1842 37.3435 24.1811 37.3391 24.1748C37.3451 24.181 37.3473 24.1842 37.3469 24.1842ZM37.3391 23.8252C37.3435 23.8189 37.3465 23.8158 37.3469 23.8158C37.3473 23.8158 37.3451 23.819 37.3391 23.8252ZM33.3075 33.5679C33.3072 33.5676 33.3073 33.5633 33.3085 33.5558C33.3084 33.5644 33.3078 33.5682 33.3075 33.5679ZM33.5558 33.3085C33.5633 33.3072 33.5676 33.3072 33.5679 33.3075C33.5682 33.3078 33.5644 33.3084 33.5558 33.3085ZM23.8158 37.3469C23.8158 37.3465 23.8189 37.3435 23.8252 37.3391C23.819 37.3451 23.8158 37.3473 23.8158 37.3469ZM24.1748 37.3391C24.1811 37.3435 24.1842 37.3465 24.1842 37.3469C24.1842 37.3473 24.181 37.3451 24.1748 37.3391ZM14.4321 33.3075C14.4324 33.3072 14.4367 33.3073 14.4442 33.3085C14.4356 33.3084 14.4318 33.3078 14.4321 33.3075ZM14.6915 33.5558C14.6928 33.5633 14.6928 33.5676 14.6925 33.5679C14.6922 33.5682 14.6916 33.5644 14.6915 33.5558ZM10.6531 23.8158C10.6535 23.8158 10.6565 23.8189 10.6609 23.8252C10.6549 23.819 10.6527 23.8158 10.6531 23.8158ZM10.6609 24.1748C10.6565 24.1811 10.6535 24.1842 10.6531 24.1842C10.6527 24.1842 10.6549 24.181 10.6609 24.1748ZM14.6925 14.4321C14.6928 14.4324 14.6928 14.4367 14.6915 14.4443C14.6916 14.4356 14.6922 14.4318 14.6925 14.4321ZM14.4443 14.6915C14.4367 14.6928 14.4324 14.6928 14.4321 14.6925C14.4318 14.6922 14.4356 14.6916 14.4443 14.6915Z" stroke="black" stroke-width="2"/>
</svg>

<svg xmlns="http://www.w3.org/2000/svg" width="48" height="48" fill="none" viewBox="0 0 48 48">
  <rect width="38" height="38" x="5" y="5" fill="#000" opacity=".2" rx="4"/>
  <path stroke="#000" stroke-width="2" d="M24.93 13.046l.626 1.576.02.051c.16.405.317.798.489 1.103.193.343.479.71.964.911.485.201.947.143 1.326.038.338-.095.725-.262 1.125-.434l.051-.022 1.558-.672c1.008-.435 1.664-.715 2.129-.843l.038-.01a2.878 2.878 0 01-.01.038c-.128.465-.408 1.12-.843 2.13l-.672 1.557-.022.05c-.172.4-.34.788-.434 1.126-.105.38-.163.841.038 1.326.2.485.568.77.911.964.305.172.698.328 1.103.489l.051.02 1.576.627c1.02.405 1.682.67 2.102.91l.034.019-.034.02c-.42.238-1.081.504-2.102.91l-1.576.626-.051.02c-.405.16-.798.317-1.103.489-.343.193-.71.479-.911.964-.201.485-.143.947-.038 1.326.095.338.262.725.434 1.125l.022.051.672 1.558c.435 1.008.715 1.664.843 2.129l.01.038a2.878 2.878 0 01-.038-.01c-.465-.128-1.12-.408-2.13-.843l-1.557-.672-.05-.022c-.4-.172-.788-.34-1.126-.434-.38-.105-.841-.163-1.326.038-.485.2-.77.568-.964.911-.172.305-.328.698-.489 1.103l-.02.051-.627 1.576c-.405 1.02-.67 1.682-.91 2.102L24 37.09l-.02-.034c-.238-.42-.504-1.081-.91-2.102l-.626-1.576-.02-.051c-.16-.405-.317-.798-.489-1.103-.193-.343-.479-.71-.964-.911-.485-.201-.947-.143-1.326-.038-.338.095-.725.262-1.125.434l-.051.022-1.558.672c-1.008.435-1.664.715-2.129.843a2.878 2.878 0 01-.038.01l.01-.038c.128-.465.408-1.12.843-2.13l.672-1.557.022-.05c.172-.4.34-.788.434-1.126.105-.38.163-.841-.038-1.326-.2-.485-.568-.77-.911-.964-.305-.172-.698-.328-1.103-.489l-.051-.02-1.576-.627c-1.02-.405-1.682-.67-2.102-.91L10.91 24l.034-.02c.42-.238 1.081-.504 2.102-.91l1.576-.626.051-.02c.405-.16.798-.317 1.103-.489.343-.193.71-.479.911-.964.201-.485.143-.947.038-1.326-.095-.338-.262-.725-.434-1.125a11.2 11.2 0 01-.022-.051l-.672-1.558c-.435-1.008-.715-1.664-.843-2.129a2.878 2.878 0 01-.01-.038l.038.01c.465.128 1.12.408 2.13.843l1.557.672.05.022c.4.172.788.34 1.126.434.38.105.841.163 1.326-.038.485-.2.77-.568.964-.911.172-.305.328-.698.489-1.103l.02-.051.627-1.576c.405-1.02.67-1.682.91-2.102L24 10.91l.02.034c.238.42.504 1.081.91 2.102zm8.638 1.647l-.012-.002c.008 0 .012.001.012.002zm-.26-.249a.04.04 0 010-.012v.012zm4.039 9.74s-.004-.003-.008-.01l.008.01zm-.008-.359a.042.042 0 01.008-.01l-.008.01zm-4.032 9.743l.002-.012c0 .008-.001.012-.002.012zm.249-.26a.04.04 0 01.012 0h-.012zm-9.74 4.039s.003-.004.01-.008l-.01.008zm.359-.008l.01.008-.01-.008zm-9.743-4.032l.012.002c-.008 0-.012-.001-.012-.002zm.26.249a.04.04 0 010 .012v-.012zm-4.039-9.74l.008.01-.008-.01zm.008.359a.042.042 0 01-.008.01l.008-.01zm4.032-9.743l-.002.012c0-.008.001-.012.002-.012zm-.249.26a.04.04 0 01-.012 0h.012zm9.74-4.039l-.01.008.01-.008zm-.359.008a.042.042 0 01-.01-.008l.01.008z"/>
</svg>
